X:1
T:When shall my wretched life - Wilbye
T:#
%%score { 1 | 2 } 3 { 4 | 5 }
L:1/8
Q:1/4=160
M:4/4
K:F
V:1 treble nm="Soprano I" snm="S"
V:2 treble 
V:3 treble nm="Alto" snm="A"
V:4 treble-8 nm="Tenor I" snm="T"
V:5 treble-8 
V:1
"^When shall my wretched life""^John Wilbye\n (1574-1638)" z8 | z8 | z8 | z4!p! e4 | f8- | f4 e4 | %6
w: |||When|shall|* my|
 d4 d4 | d4 c4 |[M:4/4] c6 B2 | A4 z4 | z8 | z8 | ^f4 g4- | g4 =f4 | d4 _e4 | d4 d4 | c4 c4 | %17
w: wretch- ed|life give|place to|death?|||when shall|* my|wretch- ed|life give|place to|
 A4 D4 | ^F6 G2 | A4 B4 | A4 d4 | B4 A4- | A4 G4- | G4 ^F4 | z4 A4 | A4 G4 | A8 | A8 | z4 d4 | %29
w: death? That|my sad|cares may|be en-|forc'd to|* leave|* me.|Come|sad- dest|sha-|dow,|come|
 f4 e4 | ^c4 c4 | d4 B4 | A8- | A4 A4 | A8- | A8 | z8 | z8 |"^cresc." =B4 c4- | c4 =B4 | c8- | %41
w: sad- dest|sha- dow,|stop my|vi\-|* tal|breath,||||For I|* am|thine,|
 c4 c4- | c4 f4- | f4 d4- | d4 g4- | g2 f2 e4 | d8 | z4!p! e4 | e8 | e8 | e4 z4 | z8 | A4 d4- | %53
w: * then|* let|* not|* care|* be- reave|thee|Of|thy|sad|thrall||but, with|
 d4 c4 | =B6 B2 | A4 A4 | =B4 A4 | A4 ^G4 | A8 | z8 | z8 | z8 |"^cresc." e8- | e8 | d8- | d4 c4 | %66
w: * thy|fa- tal|dart, but,|with thy|fa- tal|dart,||||Kill||care|* and|
 =B8 | z4 A4 | ^G4 A4 | =B4 c4 | =B8 | z8 | z8 | z8 | z8 | c4 =B4- | B4 A4 | =B4 z4 | e8 | e4 f4 | %80
w: me,|while|care lies|at my|heart.|||||Kill care|* and|me,|while|care lies|
 e8 | e8- | e8 | e8- | e16 |] %85
w: at|my||heart.||
V:2
 z4!p! A4- | A4 B4- | B4 A4 | A4 G4 | F6 G2 | A4 A4 | D8 | z8 |[M:4/4] z4 c4 | c4 d4 | c4 c4 | %11
w: When|* shall|* my|wretch- ed|life give|place to|death?||when|shall my|wretch- ed|
 d8- | d8 | d8 | =B4 c4- | c4 _B4 | A4 G4 | ^F6 G2 | A4 D4 | d6 d2 | d8- | d4 d4 | d8- | d8 | %24
w: life|||give place|* to|death? That|my sad|cares may|be en-|forc'd|* to|leave||
 d4 z4 | z4 d4 | f4 e4 | d4 A4 | A4 G4 | A6 A2 | A8 | z4 d4 | d8 | e8 | f8 | e8 | d8 | %37
w: me.|Come|sad- dest|sha- dow,|stop my|vi- tal|breath,|come|stop|my|vi-|tal|breath,|
"^cresc." d8- | d4 g4- | g2 g2 g4- | g4 z4 | z4 g4 | f4 c4 | d8 | =B8 | c8 | G8- | G8 | %48
w: For|* I|* am thine,||then|let not|care|be-|reave|thee||
!p! ^G4 A4- | A4 ^G4 | A8- | A8 | z8 | z4 e4 | e4 e4 | c4 d4 | e8- | e8 | e8 | z8 | z8 | z8 | z8 | %63
w: Of thy|* sad|thrall,|||but,|with thy|fa- tal|dart,|||||||
"^cresc." c4 =B4- | B4 A4 | =B4 z4 | e4 e4- | e4 d4 | =B4 A4 | ^G4 A4 | A4 ^G4 | A4 z4 | z8 | z8 | %74
w: Kill care|* and|me,|kill care|* and|me, while|care lies|at my|heart.|||
 e8- | e8 | d8- | d4 c4 | =B8 | z4 A4 | ^G4 A4 | =B4 (A4- | A4 ^G4) | A8- | A16 |] %85
w: Kill||care|* and|me,|while|care lies|at my||heart.||
V:3
 z8 | z8 | z8 | z8 | z8 | z4!p! c4 | B8- | B4 A4 |[M:4/4] G4 G4 | A4 B4 | B4 A4 | B8 | z4 B4 | %13
w: |||||When|shall|* my|wretch- ed|life give|place to|death?|That|
 A6 A2 | G8- | G8 | z8 | z8 | z4 z2 D2 | ^F6 G2 | A8 | G4 D4 | D8- | D4 z2 A2 | =F4 E4 | D8- | %26
w: my sad|cares,||||may|be en-|forc'd|to leave|me.|* Come|sad- dest|sha\-|
 D4 ^C4 | z2 D2 D2 E2 | F4 D4 | z4 E4- | E4 A4- | A2 A2 G4- | G4 F4 | E8- | E4 D4 | D4 ^C4 | D8- | %37
w: * dow,|come sad- dest|sha- dow,|come|* sad\-|* dest sha\-|* dow,|stop|* my|vi- tal|breath,|
 D4"^cresc." D4 | D4 E4 | D8 | E4 F4- | F4 E4 | F8 | A8 | G8- | G4 G4 | z8 |!p! E8 | E4 E4 | E8 | %50
w: * For|I am|thine,|then let|* not|care|be-|reave|* thee||Of|thy sad|thrall,|
 ^C4 D4- | D4 ^C4 | D4 z4 | z4 A4 | A4 G4 | F6 A2 | ^G4 z4 | z8 |"^cresc." E8- | E8 | D8- | D4 C4 | %62
w: of thy|* sad|thrall|but,|with thy|fa- tal|dart,||Kill||care|* and|
 =B,8 | z8 | z8 | ^G4 A4- | A4 ^G4 | A8 | z8 | z8 | z8 | E8 | D8- | D4 C4 | =B,8 | z8 | z8 | %77
w: me,|||kill care|* and|me,||||Kill|care|* and|me,|||
 ^G4 A4- | A4 ^G4 | A8 | z4 E4 | ^G4 A4 | =B4 B4 | ^c8- | c16 |] %85
w: kill care|* and|me,|while|care lies|at my|heart.||
V:4
!p! e8 | f8- | f4 f4 | f4 e4 | d8 | z8 | z4 f4- | f4 f4- |[M:4/4][K:treble-8] f4 e4 | f8- | f4 f4 | %11
w: When|shall|* my|wretch- ed|life,||when|* shall|* my|wretch\-|* ed|
 f6 e2 | d8 | d8 | d4 c4 | d4 d4 | _e6 e2 | d8 | d8 | d4 d4 | d8 | d8 | z8 | z4 d4 | d4 c4 | B8 | %26
w: life give|place|to|death? That|my sad|cares may|be|en-|forc'd to|leave|me.||Come|sad- dest|sha-|
 A8 | F6 E2 | D4 D4 | A8 | z8 | z8 | z8 | z8 | z8 | z4"^cresc." A4 | A4 B4 | A8 | z8 | z4 G4 | %40
w: dow,|stop my|vi- tal|breath,||||||For|I am|thine,||for|
 G4 A4 | G8 | z4 c4 | f8 | d8 | e4 c4 | d8 | c4!p! c4 | =B4 c4 | =B8 | z8 | z4 A4- | A4 A4 | %53
w: I am|thine,|then|let|not|care be-|reave|thee Of|thy sad|thrall||but,|* with|
 =B4 c3 d | e8 | A4 d4- | d4 c4 | =B6 B2 | A8 | z8 | z8 |"^cresc." ^G4 A4- | A4 ^G4 | A4 z4 | z8 | %65
w: thy fa- tal|dart,|but, with|* thy|fa- tal|dart,|||Kill care|* and|me,||
 z8 | e8 | e4 f4 | e4 A4 | e8- | e8 | c4 =B4- | B4 A4 | =B4 z4 | z8 | a4 g4- | g4 f4 | e8 | z8 | %79
w: |while|care lies|at my|heart.||Kill care|* and|me,||kill care|* and|me,||
 z4 A4 | e4 e4 | e8 | e8 | e8- | e16 |] %85
w: while|care lies|at|my|heart.||
V:5
!p! ^c8 | d8- | d4 =c4 | c6 B2 | A4 B4 | c4 c4 | F8 | z4 A4 |[M:4/4][K:treble-8] c8- | c4 B4 | %10
w: When|shall|* my|wretch- ed|life give|place to|death?|when|shall|* my|
 c4 c4 | B4 B4 | A4 G4 | A8 | z8 | z8 | c4 c4- | c4 B4 | A4 B4 | A6 G2 | ^F8 | z4 A4 | B8 | A8 | %24
w: wretch- ed|life give|place to|death?|||That my|* sad|cares may|be en-|forc'd|to|leave|me.|
 z8 | z8 | z4 e4 | f6 e2 | d8- | d4 ^c4 | z4 A4- | A4 (B2 c2) | d4 d4 | A8- | A8 | z8 | %36
w: ||Come|sad- dest|sha\-|* dow,|stop|* my *|vi- tal|breath,|||
"^cresc." ^f4 g4- | g4 ^f4 | g8- | g8 | z8 | G4 c4- | c4 A4- | A4 d4- | d4 G4- | G4 G4 | G8- | %47
w: For I|* am|thine,|||then let|* not|* care|* be\-|* reave|thee|
 G4 z4 | z8 | z4!p! e4 | e4 f4 | e8 | z2 d2 d2 c2 | =B4 A4 | =B8 | z8 | z8 | z8 | z4"^cresc." c4- | %59
w: ||Of|thy sad|thrall|but, with thy|fa- tal|dart,||||Kill|
 c4 =B4- | B4 A4 | =B4 z4 | z8 | a4 g4- | g4 f4 | e8 | z8 | z8 | z4 d4 | =B4 A4 | =B4 B4 | A4 z4 | %72
w: * care|* and|me,||kill care|* and|me,|||while|care lies|at my|heart.|
 z8 | ^G4 A4- | A4 ^G4 | A4 z4 | z8 | z8 | e4 e4- | e2 e2 d4- | d4 c4 | =B4 c4 | =B4 B4 | A8- | %84
w: |Kill care|* and|me,|||kill care|* and me,|* while|care lies|at my|heart.|
 A16 |] %85
w: |

